packages/ffe-icons/icons/open/300/lg/hallway.svg

<svg xmlns="http://www.w3.org/2000/svg" height="40" viewBox="0 -960 960 960" width="40"><path d="M202.565-100.001q-25.788 0-44.176-18.388t-18.388-44.176v-554.87q0-25.788 18.388-44.176t44.176-18.388h135.539l120.383-120.383q9.616-9.359 22.063-9.359 12.448 0 21.783 9.359l121.05 120.383h134.052q25.788 0 44.176 18.388t18.388 44.176v554.87q0 25.788-18.388 44.176t-44.176 18.388h-554.87Zm0-50.255h554.87q4.616 0 8.462-3.847 3.847-3.846 3.847-8.462v-554.87q0-4.616-3.847-8.462-3.846-3.847-8.462-3.847h-554.87q-4.616 0-8.462 3.847-3.847 3.846-3.847 8.462v554.87q0 4.616 3.847 8.462 3.846 3.847 8.462 3.847Zm245.179-121.129-68.923-90.768q-4.949-6.025-12.372-6.025t-12.371 6.41l-66.871 87.306q-6.41 8.154-1.859 16.513 4.551 8.359 14.039 8.359h365.791q9.025 0 13.602-8.359t-1.038-16.513l-99.179-133.717q-5.303-6.153-12.741-6.153t-12.387 6.153L447.744-271.385Zm-50.821-508.614h166.974l-83.487-83.487-83.487 83.487ZM190.256-150.256V-729.744-150.256Z"/></svg>

<svg xmlns="http://www.w3.org/2000/svg" viewBox="0 -960 960 960" width="32" height="32"><path d="M202.57-100q-25.79 0-44.18-18.39T140-162.57v-554.86q0-25.79 18.39-44.18T202.57-780H338.1l120.39-120.38q9.61-9.36 22.06-9.36t21.78 9.36L623.38-780h134.05q25.79 0 44.18 18.39T820-717.43v554.86q0 25.79-18.39 44.18T757.43-100H202.57Zm0-50.26h554.86q4.62 0 8.47-3.84 3.84-3.85 3.84-8.47v-554.86q0-4.62-3.84-8.47-3.85-3.84-8.47-3.84H202.57q-4.62 0-8.47 3.84-3.84 3.85-3.84 8.47v554.86q0 4.62 3.84 8.47 3.85 3.84 8.47 3.84Zm245.17-121.12-68.92-90.77q-4.95-6.03-12.37-6.03-7.42 0-12.37 6.41l-66.87 87.31q-6.41 8.15-1.86 16.51 4.55 8.36 14.04 8.36h365.79q9.02 0 13.6-8.36t-1.04-16.51l-99.18-133.72q-5.3-6.15-12.74-6.15t-12.38 6.15l-105.7 136.8ZM396.92-780H563.9l-83.49-83.49L396.92-780ZM190.26-150.26v-579.48 579.48Z"/></svg>
